assets/images/payment-method-icons/gpay.svg

<svg fill="none" height="58" viewBox="0 0 84 58" width="84" xmlns="http://www.w3.org/2000/svg"><rect fill="#fff" height="57" rx="3.5" stroke="#f3f3f3" width="83" x=".5" y=".5"/><g clip-rule="evenodd" fill-rule="evenodd"><path d="m40.4322 34.9714v-6.5411-.0013h3.5343c1.4571.0009 2.6817-.4575 3.6738-1.3752 1.0026-.871 1.5632-2.1232 1.5347-3.4285.0198-1.298-.5397-2.5409-1.5347-3.4091-.9834-.9227-2.306-1.4261-3.6738-1.3984h-5.6735v16.1536zm0-8.526v-5.6389-.0013h3.5874c.7996-.0218 1.5704.2904 2.1166.8572.5497.5183.8598 1.2303.8598 1.9739s-.3101 1.4556-.8598 1.9739c-.5529.5549-1.3213.8581-2.1166.8352z" fill="#5f6368"/><path d="m57.8487 24.7879c-.915-.8197-2.1631-1.2296-3.7442-1.2296-2.0312 0-3.5649.7218-4.6013 2.1653l1.8841 1.151c.6962-.9778 1.6418-1.4667 2.8368-1.4667.7618-.0087 1.499.2614 2.0647.7565.5641.4524.8885 1.1268.8836 1.8367v.4743c-.822-.4511-1.8681-.6767-3.1384-.6767-1.4881.0018-2.6777.3403-3.5688 1.0157s-1.3367 1.5849-1.3367 2.7286c-.0194 1.0414.4463 2.0357 1.2676 2.7066.845.7218 1.8951 1.0827 3.1503 1.0827 1.4704 0 2.6485-.6316 3.5343-1.8947h.0931v1.5338h2.0461v-6.8118c.0009-1.4281-.4561-2.552-1.3712-3.3717zm-5.8023 8.1535c-.4481-.3133-.7124-.8175-.7095-1.3533 0-.6019.291-1.1033.8769-1.5158.5802-.4064 1.3048-.6096 2.1738-.6096 1.1932 0 2.1232.2578 2.7902.7733 0 .8713-.3543 1.6305-1.0629 2.2775-.6383.6192-1.5036.9678-2.4063.9692-.6018.011-1.1891-.1803-1.6622-.5413z" fill="#5f6368"/><path d="m70.9654 23.9192-7.1431 15.9242h-2.2082l2.6507-5.5718-4.6969-10.3524h2.3252l3.3948 7.9396h.0465l3.3018-7.9396z" fill="#5f6368"/><path d="m31.7877 27.0203c.0008-.6324-.0544-1.2637-.1648-1.887h-9.0218v3.5741h5.1673c-.2137 1.1535-.9039 2.1723-1.9107 2.8201v2.32h3.0839c1.8057-1.615 2.8461-4.0033 2.8461-6.8272z" fill="#4285f4"/><path d="m22.6012 36.0889c2.5816 0 4.7554-.8223 6.3405-2.2401l-3.0839-2.32c-.8583.5645-1.9638.8868-3.2566.8868-2.4953 0-4.6132-1.6318-5.3706-3.8306h-3.1769v2.3909c1.6239 3.1345 4.9311 5.1128 8.5475 5.113z" fill="#34a853"/><path d="m17.2307 28.585c-.4004-1.1522-.4004-2.4 0-3.5522v-2.3909h-3.1769c-1.3582 2.6218-1.3582 5.7122 0 8.334z" fill="#fbbc04"/><path d="m22.6012 21.2022c1.3643-.0216 2.6825.4784 3.6698 1.392l2.7305-2.6486c-1.7314-1.5776-4.0251-2.4436-6.4003-2.4167-3.6164.0001-6.9236 1.9785-8.5475 5.113l3.1769 2.3909c.7574-2.1988 2.8753-3.8306 5.3706-3.8306z" fill="#ea4335"/></g></svg>

<svg
	width="84"
	height="58"
	viewBox="0 0 84 58"
	fill="none"
	xmlns="http://www.w3.org/2000/svg"
>
	<rect
		x="0.5"
		y="0.5"
		width="83"
		height="57"
		rx="3.5"
		fill="white"
		stroke="#F3F3F3"
	/>
	<path
		fill-rule="evenodd"
		clip-rule="evenodd"
		d="M40.4322 34.9714V28.4303V28.429H43.9665C45.4236 28.4299 46.6482 27.9715 47.6403 27.0538C48.6429 26.1828 49.2035 24.9306 49.175 23.6253C49.1948 22.3273 48.6353 21.0844 47.6403 20.2162C46.6569 19.2935 45.3343 18.7901 43.9665 18.8178H38.293V34.9714H40.4322ZM40.4322 26.4454V20.8065V20.8052H44.0196C44.8192 20.7834 45.59 21.0956 46.1362 21.6624C46.6859 22.1807 46.996 22.8927 46.996 23.6363C46.996 24.3799 46.6859 25.0919 46.1362 25.6102C45.5833 26.1651 44.8149 26.4683 44.0196 26.4454H40.4322Z"
		fill="#5F6368"
	/>
	<path
			fill-rule="evenodd"
			clip-rule="evenodd"
		d="M57.8487 24.7879C56.9337 23.9682 55.6856 23.5583 54.1045 23.5583C52.0733 23.5583 50.5396 24.2801 49.5032 25.7236L51.3873 26.8746C52.0835 25.8968 53.0291 25.4079 54.2241 25.4079C54.9859 25.3992 55.7231 25.6693 56.2888 26.1644C56.8529 26.6168 57.1773 27.2912 57.1724 28.0011V28.4754C56.3504 28.0243 55.3043 27.7987 54.034 27.7987C52.5459 27.8005 51.3563 28.139 50.4652 28.8144C49.5741 29.4898 49.1285 30.3993 49.1285 31.543C49.1091 32.5844 49.5748 33.5787 50.3961 34.2496C51.2411 34.9714 52.2912 35.3323 53.5464 35.3323C55.0168 35.3323 56.1949 34.7007 57.0807 33.4376H57.1738V34.9714H59.2199V28.1596C59.2208 26.7315 58.7638 25.6076 57.8487 24.7879ZM52.0464 32.9414C51.5983 32.6281 51.334 32.1239 51.3369 31.5881C51.3369 30.9862 51.6279 30.4848 52.2138 30.0723C52.794 29.6659 53.5186 29.4627 54.3876 29.4627C55.5808 29.4627 56.5108 29.7205 57.1778 30.236C57.1778 31.1073 56.8235 31.8665 56.1149 32.5135C55.4766 33.1327 54.6113 33.4813 53.7086 33.4827C53.1068 33.4937 52.5195 33.3024 52.0464 32.9414Z"
		fill="#5F6368"
	/>
	<path
			fill-rule="evenodd"
			clip-rule="evenodd"
		d="M70.9654 23.9192L63.8223 39.8434H61.6141L64.2648 34.2716L59.5679 23.9192H61.8931L65.2879 31.8588H65.3344L68.6362 23.9192H70.9654Z"
		fill="#5F6368"
	/>
	<path
			fill-rule="evenodd"
			clip-rule="evenodd"
		d="M31.7877 27.0203C31.7885 26.3879 31.7333 25.7566 31.6229 25.1333H22.6011V28.7074H27.7684C27.5547 29.8609 26.8645 30.8797 25.8577 31.5275V33.8475H28.9416C30.7473 32.2325 31.7877 29.8442 31.7877 27.0203Z"
		fill="#4285F4"
	/>
	<path
			fill-rule="evenodd"
			clip-rule="evenodd"
		d="M22.6012 36.0889C25.1828 36.0889 27.3566 35.2666 28.9417 33.8488L25.8578 31.5288C24.9995 32.0933 23.894 32.4156 22.6012 32.4156C20.1059 32.4156 17.988 30.7838 17.2306 28.585H14.0537V30.9759C15.6776 34.1104 18.9848 36.0887 22.6012 36.0889Z"
		fill="#34A853"
	/>
	<path
			fill-rule="evenodd"
			clip-rule="evenodd"
		d="M17.2307 28.585C16.8303 27.4328 16.8303 26.185 17.2307 25.0328V22.6419H14.0538C12.6956 25.2637 12.6956 28.3541 14.0538 30.9759L17.2307 28.585Z"
		fill="#FBBC04"
	/>
	<path
			fill-rule="evenodd"
			clip-rule="evenodd"
		d="M22.6012 21.2022C23.9655 21.1806 25.2837 21.6806 26.271 22.5942L29.0015 19.9456C27.2701 18.368 24.9764 17.502 22.6012 17.5289C18.9848 17.529 15.6776 19.5074 14.0537 22.6419L17.2306 25.0328C17.988 22.834 20.1059 21.2022 22.6012 21.2022Z"
		fill="#EA4335"
	/>
</svg>
